X:1
T:Did You Think to Pray?
T:Did You Think to Pray?
T:William Oscar Perkins
T:Mary Ann Pepper Kidder, 1876
T:Public Domain Courtesy of the Cyber Hymnal™
T:Public Domain Courtesy of the Cyber Hymnal™
C:William Oscar Perkins
Z:Public Domain
Z:Courtesy of the Cyber Hymnal™
%%score ( 1 2 ) 3
L:1/8
Q:1/4=105
M:4/4
K:F
V:1 treble 
V:2 treble 
V:3 bass 
V:1
 [FA]3 [FA] [FB][FA][CG][CF] | C4 [CF]4 | [EG]3 [EG] [GB]2 [FA]2 | [EG]8 | %4
w: 1.~Ere you left your room this|morn- ing,|Did you think to|pray?|
w: 2.~When you met with great temp-|ta- tion,|Did you think to|pray?|
w: 3.~When your heart was filled with|an- ger,|Did you think to|pray?|
w: 4.~When sore tri- als came up-|on you,|Did you think to|pray?|
 [EG]3 [EG] [EG][EG]F[EG] | [FA]4 [Fc]4 | [FA]3 [FA] [FB][FA][CG][CF] | D4 [DF]4 | %8
w: In the name of Christ our|Sav- ior,|Did you sue for lov- ing|fa- vor,|
w: By His dy- ing love and|mer- it,|Did you claim the Ho- ly|Spir- it|
w: Did you plead for grace, my|bro- ther,|That you might for- give a-|no- ther|
w: When your soul was bowed in|sor- row,|Balm of Gil- ead did you|bor- row|
 [CE]3 [CF] [EG]3 [EA] | F8 ||"^Refrain" [Ac]3 [Ac] [Bd][Ac][^G=B][Ac] | [Af]4 [Ac]4 | %12
w: As a shield to-|day?|||
w: As your guide and|stay?|||
w: Who had crossed your|way?|||
w: At the gates of|day?|||
 [FA]3 [Ac] [Bd][Ac][GB][FA] | [EG]8 | [FA]3 [FA] [FB][FA][CG][CF] | D4 [DF]4 | %16
w: ||||
w: ||||
w: ||||
w: ||||
 [CE]3 [CF] [EG]3 [FA] | F8 |] %18
w: ||
w: ||
w: ||
w: ||
V:2
 x8 | C4 x4 | x8 | x8 | x8 | x8 | x8 | D4 x4 | x8 | F8 || x8 | x8 | x8 | x8 | x8 | D4 x4 | x8 | %17
 F8 |] %18
V:3
 [F,C]3 [F,C] [F,D][F,C][F,B,][F,A,] | [F,A,]4 [F,A,]4 | [C,C]3 [C,C] [E,C]2 [F,C]2 | [C,C]8 | %4
w: ~ ~ ~ ~ ~ ~|~ ~|~ ~ ~ ~|~|
 [C,C]3 [C,C] [C,C][C,C][A,,C][C,C] | [F,C]4 [F,A,]4 | [F,C]3 [F,C] [F,D][F,C][F,B,][F,A,] | %7
w: ~ ~ ~ ~ ~ ~|~ ~|~ ~ ~ ~ ~ ~|
 [B,,B,]4 [B,,B,]4 | [C,G,]3 [C,A,] [C,B,]3 [C,C] | [F,A,]8 || [F,C]3 [F,F] [F,F][F,F][F,F][F,F] | %11
w: ~ ~|~ ~ ~ ~|~|O how pray- ing rests the|
 [F,C]4 [F,F]4 | [F,C]3 [F,F] [F,F][F,F][F,C][F,C] | [C,C]8 | [F,C]3 [F,C] [F,D][F,C][F,B,][F,A,] | %15
w: wear- y!|Prayer will change the night to|day;|So when life seems dark and|
 [B,,B,]4 [B,,B,]4 | [C,G,]3 [C,A,] [C,B,]3 [C,C] | [F,A,]8 |] %18
w: drear- y,|Don’t for- get to|pray.|

